X:1
T:戦場のメリークリスマス
T:戦場のメリークリスマス
T:坂本龍一
C:坂本龍一
%%score { ( 1 3 ) | 2 }
L:1/8
Q:3/8=68
M:12/8
K:Db
V:1 treble nm="Piano" snm="Pno."
V:3 treble 
V:2 treble 
V:1
"^\n"!p!!8va(! !>!f'e'f' !>!b'f'e' !>!f'e'f' !>!b'f'e' | !>!f'e'f' !>!a'f'e' !>!f'e'f' !>!a'f'e' | %2
 !>!e'd'e' !>!a'e'd' !>!e'd'e' !>!a'e'd' | !>!e'd'e' !>!a'e'd' !>!c'bc' !>!f'c'b | %4
 !>!f'e'f' !>!b'f'e' !>!f'e'f' !>!b'f'e' | !>!f'e'f' !>!a'f'e' !>!f'e'f' !>!a'f'e' | %6
 !>!e'd'e' !>!c''e'd' !>!a'e'd' !>!c''e'd' | !>!e'd'e' !>!c''e'd' !>!a'e'd' !>!c''e'd' | %8
 !>!f'e'f' !>![bb']f'e' !>!f'e'f' !>![bb']f'e' | !>!f'e'f' !>![aa']f'e' !>!f'e'f' !>![aa']f'e' | %10
 !>!e'd'e' !>![aa']e'd' !>!e'd'e' !>![aa']e'd' | !>!e'd'e' !>![aa']e'd' !>!c'bc' !>![ff']c'b | %12
 !>!f'e'f' !>![bb']f'e' !>!f'e'f' !>![bb']f'e' | !>!f'e'f' !>![aa']f'e' !>!f'e'f' !>![aa']f'e' | %14
 !>!e'd'e' !>!c''e'd' !>!a'e'd' !>!c''e'd' | %15
 !>!e'd'e' !>!c''e'd'[Q:3/8=60] !>!a'e'd'[Q:1/4=40] !>!!fermata!c''3!8va)! | %16
[M:4/4][Q:1/4=88]"^\n"!mp! [B,E]FEB, E4- | E2 EF EFAF | EFEB, D4 | %19
 z2 !arpeggio![DFd]2 [CFc]A [CF]2 | [B,E]FEB, E4- | E2 EF EFAF | EFED B,4- | B,4 F,4 | %24
 [Be][cf][Be]B [FBe]4- | [FBe]2 [Be][cf] [Be][cf][ea][cf] | [Be][cf][Be][FB] [Ad]4 | %27
 z2 !arpeggio![dfd']2 [cfc']a [cf]2 | [Be][cf][Be]B [FBe]4- | [FBe]2 [Be][cf] [Be][cf][ea][cf] | %30
 [Be][cf][Be][Ad] [FB]4- | [FB] z z2 C2 D2 | %32
[Q:1/4=92] [CEGB]AB[CEGA]- [CEGA] [CEGB]2 !arpeggio![CEGB]- | [CEGB]AB[CEGA]- [CEGA][CEB]AG | %34
 [G,B,DF]EF[G,B,DE]- [G,B,DE] [G,B,DF]2 [G,B,DF-] | FEF[G,B,DE]- [G,B,DE]2 FG | %36
 [CEGB]AB[CEGA]- [CEGA] [CEGB]2 [CEGB]- | [CEGB]AB[CEGA]- [CEGA][CEGB]AG | %38
 [B,DF]EFB- B F2 [=A,=DF]- | [A,DF]EF[Q:1/4=60]!fermata!=A- A4 | %40
[Q:1/4=88]!8va(! [be'][c'f'][be'][fb] [be']4- | [be']2 [be'][c'f'] [be'][c'f'][e'a'][c'f'] | %42
 [be'][c'f'][be'][fb] [ad']4 | z2 !arpeggio![d'f'd'']2 [c'f'c'']a' [c'f']2 | %44
 [be'][c'f'][be'][fb] [be']4- | [be']2 [be'][c'f'] [be'][c'f'][e'a'][c'f'] | %46
 [be'][c'f'][be'][ad'] [fb]4!8va)! |!>(! e'c'd'f ecdc'!>)! | %48
!mp![Q:1/4=92] [Be][cf][Be][FB] [Be]4- | [Be]2 [Be][cf] [Be][cf][ea][cf] | [Be][cf][Be][FB] [Ad]4 | %51
 z2 !arpeggio![dfd']2 [cc']a [cf]2 | [Be][cf][Be][FB] [Be]4- | [Be]2 [Be]f [Be]faf | efed B3 d | %55
[Q:1/4=84]!>(! B3 A[Q:1/4=76] F2 FE!>)! | %56
[Q:1/4=96] !>![A,B,DF].[A,B,DF].[A,B,DF].[A,B,DF] !>![A,B,DF].[A,B,DF].[A,B,DF].[A,B,DF] | %57
 !>![A,B,CF].[A,B,CF].[A,B,CF].[A,B,CF] !>![A,B,CE].[A,B,CE].[A,B,CE].[A,B,CE] | %58
 !>![A,CDE].[A,CDE].[A,CDE].[A,CDE] !>![A,CDE].[A,CDE] .[A,CDE].[F,A,CD]/.[F,A,CD]/ | %59
 !>![F,A,CD].[F,A,CD].[F,A,CD].[F,A,CD] [F,A,CD]2 [F,A,CE]2 | %60
 !>![A,B,DF].[A,B,DF].[A,B,DF].[A,B,DF] !>![A,B,DF].[A,B,DF].[A,B,DF].[A,B,DF] | %61
 !>![A,B,CF].[A,B,CF].[A,B,CF].[A,B,CF] [A,B,CE]2 [B,CEA]2 | %62
 !>![CDEA].[CDEA].[CDEA].[CDEA] .[CDEA].[CDEA] !>![DEAc]2 | %63
!<(! !>![DEAc].[DEAc].[DEAc].[DEAc] !tenuto![Acdf]2 !>![FAce]2!<)! |!mf! [Be][cf][Be][FB] [Be]4- | %65
 [Be]2 [Be][cf] [Be][cf][ea][cf] | [Be][cf][Be][FB] [Ad]4 | z2 [dfd']2 [cfc']a [cf]2 | %68
 [Be][cf][Be][FB] [Be]4- | [Be]2 [Be][cf] [Be][cf][ea][cf] | [Be][cf][Be][Ad] [FB]4 | %71
 z2!<(! !>![dbd']2 !>![dbd']2 !>![ec'e']2!<)! |!f!!8va(! [be'][c'f'][be'][fb] [be']4- | %73
 [be']2 [be'][c'f'] [be'][c'f'][e'a'][c'f'] | [be'][c'f'][be'][fb] [ad']4 | %75
 z2 [d'f'd'']2 [c'f'c'']a' [c'f']2 | [be'][c'f'][be'][fb] [be']4- | %77
 [be']2 [be'][c'f'] [be'][c'f'][e'a'][c'f'] | [be'][c'f'][be'][ad'] [fb]4!8va)! | %79
{/d'} e'c'd'f ecdc' | [Be][cf][Be][FB] [Be]4- | [Be]2 [Be][cf] [Be][cf][ea][cf] | %82
 [Be][cf][Be][FB] [Ad]4 | z2 [dfd']2 [cfc']a [cf]2 | [Be][cf][Be][FB] [FBe]4- | %85
 [FBe]2 [Be]f [Be][cf][fa][cf] | [Be][cf][Be][Fd][Q:1/4=92] [GB]3[Q:1/4=84] d | %87
!>(! [CGB]3[Q:1/4=80] A F2[Q:1/4=72] [G,CF][Q:1/4=68]E!>)! |[Q:1/4=80] [B,DF]4 B,4 | %89
[K:bass] C,4{E,=D,_D,} C,2 F,,2 |{F,B,} F4 B,4 | C4{E=D_D} C2 F,2 |[K:treble]{FB} f4 B4 | %93
 c4{e=d_d} c2 F2 |!p!!<(! !///![fbf']8!<)! |!f! !fermata![fbf']8 |] %96
V:2
!ped! !arpeggio![gad']12!ped-up! |!ped! !arpeggio![gabc']12!ped-up! | %2
!ped! !arpeggio![fabc']12!ped-up! |!ped! !arpeggio![Bfa]6 !arpeggio![Acdf]6!ped-up! | %4
!ped! !arpeggio![gad']12!ped-up! |!ped! !arpeggio![gabc']12!ped-up! | %6
!ped! !arpeggio![fabc']12!ped-up! |!ped! !arpeggio![Bfa]12!ped-up! | %8
!ped! !arpeggio![GAdf]12!ped-up! |!ped! !arpeggio![GAcf]12!ped-up! | %10
!ped! !arpeggio![FAce]12!ped-up! |!ped! !arpeggio![Bcdf]6 !arpeggio![Acdf]6!ped-up! | %12
!ped! !arpeggio![GAdf]12!ped-up! |!ped! !arpeggio![GAcf]12!ped-up! | %14
!ped! !arpeggio![FAce]12!ped-up! |!ped! !arpeggio![Bcdf]12!ped-up! | %16
[M:4/4][K:bass]!ped! [G,,D,]8 | x4!ped-up!!ped! [A,,G,]8!ped-up! |!ped! B,,2 F,2 A,4!ped-up! | %19
!ped! B,,2 B,2 A,2 [A,,F,]2!ped-up! |!ped! [G,,D,]8!ped-up! |!ped! [A,,G,]8!ped-up! | %22
!ped! B,,2 F,2 [D,A,]2 z2!ped-up! |!ped! B,,2 z2 [A,,C,E,]4!ped-up! |!ped! G,,2 D,2 B,4!ped-up! | %25
!ped! [A,,E,]2 F,2 C4!ped-up! |!ped! B,,2 F,2 D4!ped-up! |!ped! B,,2 [B,F]2 A,2 [A,,F,]2!ped-up! | %28
!ped! G,,2 D,2 B,4!ped-up! |!ped! [A,,E,]2 F,2 C4!ped-up! |!ped! B,,2 F,2 [A,D]4-!ped-up! | %31
!ped! [A,D] B,,3 C,2 D,2!ped-up! |!ped! B,A,B,A,- A, B,2!ped-up!!ped! [A,,E,B,]-!ped-up! | %33
 [A,,E,B,]A,B,A,- A,B,A,G, |!ped! E,,2 B,, E,2 F,2!ped-up!!ped! [E,,B,,]-!ped-up! | %35
 [E,,B,,]2 z E,- E,2 F,G, |!ped! [A,,E,]2 A,2 z B,2!ped-up!!ped! B,-!ped-up! | B,A,B,A,- A,B,A,G, | %38
!ped! [C,,G,,E,]7!ped-up!!ped! [F,,E,]-!ped-up! | [F,,E,]3 !fermata!F,,,4- F,,, | %40
!ped! G,,,2 D,2!ped-up! B,4 |!ped! A,,,2 G,2 C4!ped-up! |!ped! B,,,2 F,2 [A,D]4!ped-up! | %43
!ped! B,,2 [B,F]2 A,2 [A,,F,]2!ped-up! |!ped! G,,2 D,2 B,4!ped-up! |!ped! A,,2 G,2 C4!ped-up! | %46
!ped! B,,2 F,2 [A,D]4-!ped-up! |!ped! [A,D]2 z2 [A,CDF]4!ped-up! |!ped! G,,2 D,2 B,4!ped-up! | %49
!ped! [A,,E,]2 G,2 C4!ped-up! |!ped! B,,2 F,2 [A,D]4!ped-up! |!ped! B,,2 [B,F]2 [A,F]4!ped-up! | %52
!ped! [G,E]2 [G,E]2 [G,E]2 [G,E]2!ped-up! |!ped! [G,A,CE]2 [G,A,CE]2 [G,A,CE]2 [G,A,CE]2!ped-up! | %54
!ped! [F,A,CD]2 [F,A,CD]2 [E,G,B,D]2 [E,G,B,D]2!ped-up! | %55
!ped! [A,,E,A,]2 [A,,E,A,]2 !tenuto![A,,,A,,]2 !tenuto![A,,,A,,]2!ped-up! | %56
 !>![G,,,D,,G,,].[G,,,D,,G,,].[G,,,D,,G,,].[G,,,D,,G,,] !>![G,,,D,,G,,].[G,,,D,,G,,].[G,,,D,,G,,].[G,,,D,,G,,] | %57
 !>![G,,,E,,G,,].[G,,,E,,G,,].[G,,,E,,G,,].[G,,,E,,G,,] !>![G,,,E,,G,,].[G,,,E,,G,,].[G,,,E,,G,,].[G,,,E,,G,,] | %58
 !>![F,,,C,,F,,].[F,,,C,,F,,].[F,,,C,,F,,].[F,,,C,,F,,] !>![F,,,C,,F,,].[F,,,C,,F,,] .[F,,,C,,F,,].[B,,,F,,B,,]/.[B,,,F,,B,,]/ | %59
 !>![B,,,F,,B,,].[B,,,F,,B,,].[B,,,F,,B,,].[B,,,F,,B,,] !>![B,,,F,,B,,].[B,,,F,,B,,].[A,,,F,,A,,].[A,,,F,,A,,] | %60
 !>![G,,,D,,G,,].[G,,,D,,G,,].[G,,,D,,G,,].[G,,,D,,G,,] !>![G,,,D,,G,,].[G,,,D,,G,,].[G,,,D,,G,,].[G,,,D,,G,,] | %61
 !>![G,,,E,,G,,].[G,,,E,,G,,].[G,,,E,,G,,].[G,,,E,,G,,] !>![G,,,E,,G,,].[G,,,E,,G,,].[G,,,E,,G,,].[G,,,E,,G,,] | %62
 !>![F,,,C,,F,,].[F,,,C,,F,,].[F,,,C,,F,,].[F,,,C,,F,,] !>![F,,,C,,F,,].[F,,,C,,F,,].[F,,,C,,F,,].[F,,,C,,F,,] | %63
 !>![B,,,F,,B,,].[B,,,F,,B,,].[B,,,F,,B,,].[B,,,F,,B,,] !>![B,,,F,,B,,].[B,,,F,,B,,].[A,,,F,,A,,].[A,,,F,,A,,] | %64
!ped! .[G,,,G,,].[D,B,].[D,B,].[D,B,] .[D,B,].[D,B,].[D,B,].[D,B,]!ped-up! | %65
!ped! .[A,,E,].[F,C].[F,C].[F,C] .[F,C].[F,C].[F,C].[F,C]!ped-up! | %66
!ped! .[B,,F,].[F,A,D].[F,A,D].[F,A,D] .[F,A,D].[F,A,D].[F,A,D].[F,A,D]!ped-up! | %67
!ped! .B,,.[B,,F,A,].[B,,F,A,].[B,,F,A,] .[A,,F,A,].[A,,F,A,].[A,,F,A,].[A,,F,A,]!ped-up! | %68
!ped! .[G,,D,].[D,B,].[D,B,].[D,B,] .[D,B,].[D,B,].[D,B,].[D,B,]!ped-up! | %69
!ped! .[A,,E,].[F,C].[F,C].[F,C] .[F,C].[F,C].[F,C].[F,C]!ped-up! | %70
!ped! .B,,.[F,A,D].[F,A,D].[F,A,D] .[F,A,D].[F,A,D].[F,A,D].[F,A,D]!ped-up! | %71
!ped! .B,,.[B,,F,B,].[B,,F,B,].[B,,F,B,] .[A,,E,A,].[A,,E,A,].[A,,E,A,].[A,,E,A,]!ped-up! | %72
!ped! .[G,,D,].[D,B,].[D,B,].[D,B,] .[D,B,].[D,B,].[D,B,].[D,B,]!ped-up! | %73
!ped! .[A,,E,].[F,C].[F,C].[F,C] .[F,C].[F,C].[F,C].[F,C]!ped-up! | %74
!ped! .[B,,F,].[F,A,D].[F,A,D].[F,A,D] .[F,A,D].[F,A,D].[F,A,D].[F,A,D]!ped-up! | %75
!ped! .B,,.[B,,F,A,].[B,,F,A,].[B,,F,A,] .[A,,F,A,].[A,,F,A,].[A,,F,A,].[A,,F,A,]!ped-up! | %76
!ped! .[G,,D,].[D,B,].[D,B,].[D,B,] .[D,B,].[D,B,].[D,B,].[D,B,]!ped-up! | %77
!ped! .[A,,E,].[F,C].[F,C].[F,C] .[F,C].[F,C].[F,C].[F,C]!ped-up! | %78
!ped! .[B,,F,].[F,A,D].[F,A,D].[F,A,D] .[F,A,D].[F,A,D].[F,A,D].[F,A,D]!ped-up! | %79
!ped! .B,,.B,,.[B,,F,B,].[B,,F,B,] .[A,,D,F,A,].[A,,D,F,A,].[A,,D,F,A,].[A,,D,F,A,]!ped-up! | %80
!ped! .[G,,D,].[D,B,].[D,B,].[D,B,] .[D,B,].[D,B,].[D,B,].[D,B,]!ped-up! | %81
!ped! .[A,,E,].[F,C].[F,C].[F,C] .[F,C].[F,C].[F,C].[F,C]!ped-up! | %82
!ped! .[B,,F,].[F,A,D].[F,A,D].[F,A,D] .[F,A,D].[F,A,D].[F,A,D].[F,A,D]!ped-up! | %83
!ped! .B,,.[B,,F,A,].[B,,F,A,].[B,,F,A,] .[A,,F,A,].[A,,F,A,].[A,,F,A,].[A,,F,A,]!ped-up! | %84
!ped! =G,,E,B,E, B,E,!>!G,,E,!ped-up! |!ped! !>!G,,E,A,E, CE,!>!G,,E,!ped-up! | %86
!ped! F,,D,A,D, E,,B,, G,2!ped-up! |!ped! A,,E,A, z [A,,,A,,]4!ped-up! | %88
!ped! !///-!G,,,4 G,,4!ped-up! | !///-!G,,,4 G,,4 |!ped! !///-!G,,,4 G,,4!ped-up! | %91
 !///-!G,,,4 G,,4 |!ped! !///-!G,,,4 G,,4!ped-up! | !///-!G,,,4 G,,4 | %94
!ped! !///-!G,,,4 G,,4!ped-up! | !fermata![G,,,G,,]8 |] %96
V:3
!8va(! x12 | x12 | x12 | x12 | x12 | x12 | x12 | x12 | x12 | x12 | x12 | x12 | x12 | x12 | x12 | %15
 x12!8va)! |[M:4/4] x8 | B,8 | x8 | x8 | x8 | B,8 | x8 | x8 | x8 | x8 | x8 | x8 | x8 | x8 | x8 | %31
 x8 | x8 | x8 | x8 | x8 | x8 | x8 | x8 | x8 |!8va(! x8 | x8 | x8 | x8 | x8 | x8 | x8!8va)! | x8 | %48
 x8 | x8 | x8 | x8 | x8 | x8 | x8 | x8 | x8 | x8 | x8 | x8 | x8 | x8 | x8 | x8 | x8 | x8 | x8 | %67
 x8 | x8 | x8 | x8 | x8 |!8va(! x8 | x8 | x8 | x8 | x8 | x8 | x8!8va)! | x8 | x8 | x8 | x8 | x8 | %84
 x8 | x8 | x8 | x8 | x8 |[K:bass] x8 | x8 | x8 |[K:treble] x8 | x8 | x8 | x8 |] %96

